X:489
T:Sumna kukurica
Z:Jack Campin, http://www.campin.me.uk/
F:Jack Campin's Nine-Note Tunebook
% last edit 26-02-2013
S:Slovenske Ludove Pienske v.3
M:2/4
L:1/8
Q:1/4=120
K:DMin
DD GF|E D3 |\
GG cB|G A3 |
(c{G}) (c{G}) (B{A}) (A{F})|(G{E}) D3 |D2 z2:|
B2 BA|G A3 |\
BA GA|D2 z2|\
AA cB|A2 z2|
cc BA|G D3 |D2 z2|]

